X:1
T:Princess -- Hornpipe
R:hornpipe
B:Cole's 1000 Fiddle Tunes
M:C|
L:1/8
K:Bb
uB>fd>B G>ec>A|B>cd>B F2 BA|\
G2e2 ((3efe) ((3dcB)|A2f2 ((3fgf) ((3edc)|
B>fd>B G>ec>A|B>cd>B F2 B>A|\
G>gf>e d>cB>A|B2b2B2:|
|:(ucB)|A>cf>=e f>dc>B|A>cf>=e f2f2|\
=e>gb>g e>cd>e|f>=ef>e f2_e2|
d>ef>d B>cd>B|c>de>c A>Bc>A|\
B>ba>g ((3fgf) ((3edc)|B2b2B2:|
